build/img/svg/ok.svg

<svg width="40" height="40" viewBox="0 0 40 40" fill="none" xmlns="http://www.w3.org/2000/svg">
<rect width="40" height="40" rx="20" fill="#ED812B"/>
<path d="M14.1767 20.6041C13.6862 21.514 14.2431 21.9489 15.5137 22.6919C16.5938 23.3217 18.086 23.552 19.0446 23.6441C18.6517 24.0005 20.452 22.3665 15.2672 27.0729C14.1679 28.0674 15.9377 29.6629 17.0363 28.6896L20.0103 25.9826C21.1489 27.0163 22.2402 28.007 22.9843 28.6934C24.0837 29.6705 25.8527 28.0885 24.7654 27.0767C24.6838 27.0035 20.7352 23.4289 20.9761 23.6479C21.9466 23.5557 23.4164 23.3118 24.4838 22.6957L24.483 22.6949C25.7535 21.9482 26.3104 21.514 25.8271 20.6041C25.5351 20.0876 24.7478 19.6557 23.6996 20.4025C23.6996 20.4025 22.2842 21.4256 20.0015 21.4256C17.718 21.4256 16.3034 20.4025 16.3034 20.4025C15.256 19.6519 14.4655 20.0876 14.1767 20.6041Z" fill="white"/>
<path d="M20.0003 20C22.7525 20 24.9999 17.7615 24.9999 15.0058C24.9999 12.2385 22.7525 10 20.0003 10C17.2472 10 14.9999 12.2385 14.9999 15.0058C14.9999 17.7615 17.2472 20 20.0003 20ZM20.0003 12.5358C21.3527 12.5358 22.4558 13.6403 22.4558 15.0058C22.4558 16.3597 21.3527 17.4642 20.0003 17.4642C18.6479 17.4642 17.5448 16.3597 17.5448 15.0058C17.544 13.6394 18.6471 12.5358 20.0003 12.5358Z" fill="white"/>
</svg>

<svg width="40" height="40" viewBox="0 0 40 40" fill="none" xmlns="http://www.w3.org/2000/svg"><rect width="40" height="40" rx="20" fill="#ED812B"/><path d="M14.177 20.604c-.49.91.066 1.345 1.337 2.088 1.08.63 2.572.86 3.53.952l-3.777 3.429c-1.1.994.67 2.59 1.77 1.617l2.973-2.707a558.941 558.941 0 0 1 2.974 2.71c1.1.977 2.869-.605 1.781-1.616l-3.789-3.43c.97-.091 2.44-.335 3.508-.951l-.001-.001c1.27-.747 1.827-1.181 1.344-2.09-.292-.517-1.08-.95-2.127-.203 0 0-1.416 1.024-3.698 1.024-2.284 0-3.699-1.023-3.699-1.023-1.047-.751-1.838-.315-2.126.201z" fill="#fff"/><path d="M20 20c2.753 0 5-2.238 5-4.994A5.007 5.007 0 0 0 20 10c-2.753 0-5 2.239-5 5.006A5.004 5.004 0 0 0 20 20zm0-7.464a2.464 2.464 0 0 1 0 4.928 2.462 2.462 0 0 1-2.455-2.458A2.463 2.463 0 0 1 20 12.536z" fill="#fff"/></svg>
